img/icons/software/adress-book.svg

<svg viewBox="0 0 16 16" xmlns="http://www.w3.org/2000/svg"><path d="m4 8c0-2.21 1.79-4 4-4h1.17c2.12 0 3.83 1.72 3.83 3.83v0.417c0 0.966-0.784 1.75-1.75 1.75-0.648 0-1.21-0.352-1.52-0.875-0.286 0.51-0.828 0.875-1.73 0.875-1.5 0-2-1-2-2s0.5-2 2-2c0.702 0 1.18 0.219 1.5 0.554v-0.0544c0-0.276 0.224-0.5 0.5-0.5 0.276 0 0.5 0.224 0.5 0.5v1.75c0 0.414 0.336 0.75 0.75 0.75s0.75-0.336 0.75-0.75v-0.417c0-1.56-1.27-2.83-2.83-2.83h-1.17c-1.66 0-3 1.34-3 3 0 1.66 1.34 3 3 3h0.499c0.694 0 1.13-0.115 1.38-0.214 0.124-0.0496 0.203-0.0959 0.244-0.124 0.0207-0.0137 0.0325-0.0232 0.0365-0.0264 0.196-0.184 0.504-0.181 0.696 0.0108 0.195 0.195 0.195 0.512 0 0.707-0.0191 0.019-0.0394 0.0368-0.0602 0.0539-0.0293 0.0242-0.0682 0.0538-0.118 0.0867-0.099 0.066-0.239 0.145-0.428 0.22-0.378 0.151-0.942 0.286-1.75 0.286h-0.499c-2.21 0-4-1.79-4-4zm5 0c0 0.351-0.0898 0.596-0.206 0.735-0.0892 0.107-0.285 0.265-0.794 0.265s-0.705-0.158-0.794-0.265c-0.116-0.139-0.206-0.383-0.206-0.735 0-0.351 0.0898-0.596 0.206-0.735 0.0892-0.107 0.285-0.265 0.794-0.265s0.705 0.158 0.794 0.265c0.116 0.139 0.206 0.383 0.206 0.735z" clip-rule="evenodd" fill="#000" fill-rule="evenodd"/><path d="m2 11.2v-1.2h-1.5c-0.276 0-0.5-0.224-0.5-0.5 0-0.276 0.224-0.5 0.5-0.5h1.5v-2h-1.5c-0.276 0-0.5-0.224-0.5-0.5 0-0.276 0.224-0.5 0.5-0.5h1.5v-1.2c0-0.291 0-0.556 0.00169-0.8h-1.5c-0.276 0-0.5-0.224-0.5-0.5 0-0.276 0.224-0.5 0.5-0.5h1.53c0.0359-0.588 0.117-1.01 0.298-1.36 0.288-0.564 0.747-1.02 1.31-1.31 0.642-0.327 1.48-0.327 3.16-0.327h3.4c1.68 0 2.52 0 3.16 0.327 0.564 0.288 1.02 0.747 1.31 1.31 0.182 0.356 0.262 0.774 0.298 1.36h0.529c0.276 0 0.5 0.224 0.5 0.5v2c0 0.276-0.224 0.5-0.5 0.5h-0.5v2h0.5c0.276 0 0.5 0.224 0.5 0.5v2c0 0.276-0.224 0.5-0.5 0.5h-0.5v0.2c0 1.68 0 2.52-0.327 3.16-0.288 0.564-0.746 1.02-1.31 1.31-0.642 0.327-1.48 0.327-3.16 0.327h-3.4c-1.68 0-2.52 0-3.16-0.327-0.564-0.288-1.02-0.747-1.31-1.31-0.182-0.356-0.262-0.774-0.298-1.36h-1.53c-0.276 0-0.5-0.224-0.5-0.5 0-0.276 0.224-0.5 0.5-0.5h1.5c-0.00169-0.244-0.00169-0.509-0.00169-0.8zm12-6.4c0-0.857-8e-4 -1.44-0.0376-1.89-0.0358-0.438-0.101-0.663-0.18-0.819-0.192-0.376-0.498-0.682-0.874-0.874-0.156-0.0797-0.381-0.145-0.819-0.18-0.45-0.0368-1.03-0.0376-1.89-0.0376h-3.4c-0.857 0-1.44 7.8e-4 -1.89 0.0376-0.438 0.0358-0.663 0.101-0.819 0.18-0.376 0.192-0.682 0.498-0.874 0.874-0.0797 0.156-0.145 0.381-0.18 0.819-0.0368 0.45-0.0376 1.03-0.0376 1.89v6.4c0 0.857 7.8e-4 1.44 0.0376 1.89 0.0358 0.438 0.101 0.663 0.18 0.819 0.192 0.376 0.498 0.682 0.874 0.874 0.156 0.0796 0.381 0.145 0.819 0.18 0.45 0.0368 1.03 0.0375 1.89 0.0375h3.4c0.857 0 1.44-7e-4 1.89-0.0375 0.438-0.0358 0.663-0.101 0.819-0.18 0.376-0.192 0.682-0.498 0.874-0.874 0.0797-0.156 0.145-0.381 0.18-0.819 0.0368-0.45 0.0376-1.03 0.0376-1.89v-6.4z" clip-rule="evenodd" fill="#000" fill-rule="evenodd"/></svg>

<svg xmlns="http://www.w3.org/2000/svg" viewBox="0 0 16 16" fill="none">
  <path fill="#000" fill-rule="evenodd"
    d="M4 8a4 4 0 0 1 4-4h1.167A3.833 3.833 0 0 1 13 7.834v.416a1.75 1.75 0 0 1-3.266.875C9.448 9.635 8.906 10 8 10c-1.5 0-2-1-2-2s.5-2 2-2c.702 0 1.185.22 1.5.555V6.5a.5.5 0 0 1 1 0v1.75a.75.75 0 0 0 1.5 0v-.416A2.833 2.833 0 0 0 9.167 5H8a3 3 0 1 0 .001 6H8.5c.694 0 1.13-.115 1.377-.214.124-.05.202-.096.244-.124l.037-.026a.5.5 0 1 1 .635.772 1.512 1.512 0 0 1-.117.086 2.33 2.33 0 0 1-.428.22C9.87 11.866 9.306 12 8.5 12h-.499A4.001 4.001 0 0 1 4 8Zm5 0c0 .352-.09.596-.206.735C8.705 8.842 8.51 9 8 9s-.705-.158-.794-.265C7.09 8.596 7 8.352 7 8c0-.351.09-.595.206-.735C7.295 7.158 7.49 7 8 7s.705.158.794.265C8.91 7.405 9 7.65 9 8Z"
    clip-rule="evenodd" />
  <path fill="#000" fill-rule="evenodd"
    d="M2 11.2V10H.5a.5.5 0 1 1 0-1H2V7H.5a.5.5 0 1 1 0-1H2V4.8c0-.29 0-.556.002-.8H.5a.5.5 0 1 1 0-1h1.529c.036-.588.116-1.005.298-1.362A3 3 0 0 1 3.638.328C4.28 0 5.12 0 6.8 0h3.4c1.68 0 2.52 0 3.162.327a3 3 0 0 1 1.311 1.311c.181.357.262.774.298 1.362h.529a.5.5 0 0 1 .5.5v2a.5.5 0 0 1-.5.5H15v2h.5a.5.5 0 0 1 .5.5v2a.5.5 0 0 1-.5.5H15v.2c0 1.68 0 2.52-.327 3.162a3 3 0 0 1-1.311 1.311C12.72 16 11.88 16 10.2 16H6.8c-1.68 0-2.52 0-3.162-.327a3 3 0 0 1-1.311-1.31c-.182-.357-.262-.774-.298-1.363H.5a.5.5 0 1 1 0-1h1.502C2 11.757 2 11.491 2 11.2Zm12-6.4c0-.856 0-1.439-.038-1.889-.035-.438-.1-.662-.18-.819a2 2 0 0 0-.874-.874c-.156-.08-.38-.144-.819-.18C11.639 1 11.057 1 10.2 1H6.8c-.857 0-1.439.001-1.889.038-.438.036-.663.1-.819.18a2 2 0 0 0-.874.874c-.08.157-.145.38-.18.82C3 3.361 3 3.943 3 4.8v6.4c0 .857 0 1.44.038 1.89.035.438.1.662.18.818a2 2 0 0 0 .874.874c.156.08.38.145.819.18C5.361 15 5.943 15 6.8 15h3.4c.857 0 1.439 0 1.889-.037.438-.036.663-.101.819-.18a2 2 0 0 0 .874-.875c.08-.156.145-.38.18-.819C14 12.64 14 12.057 14 11.2V4.8Z"
    clip-rule="evenodd" />
</svg>
